papirus/32x32/apps/subsonic.svg

<svg height="32" viewBox="0 0 32 32.000001" width="32" xmlns="http://www.w3.org/2000/svg" xmlns:xlink="http://www.w3.org/1999/xlink"><linearGradient id="a" gradientUnits="userSpaceOnUse" x1="2" x2="8" y1="1038.1122" y2="1038.1122"><stop offset="0" stop-opacity="0"/><stop offset="1"/></linearGradient><g transform="translate(0 -1020.3622)"><g transform="matrix(.66666667 0 0 .8 -1.3333334 215.87245)"><rect fill="#41b941" height="10" rx="1.4059999" ry="1.7465838" width="3" x="14" y="1014.3622"/><path d="m15.40625 10c-.778924 0-1.40625.778486-1.40625 1.746094v1c0-.967608.627326-1.746094 1.40625-1.746094h.1875c.778924 0 1.40625.778486 1.40625 1.746094v-1c0-.967608-.627326-1.746094-1.40625-1.746094z" fill="#fff" opacity=".2" transform="translate(0 1004.3622)"/></g><path d="m14.6 1027.3622c-.7756 0-1.6.6175-1.6 1.3846v1.6168c-2.597684.8209-4.3 3.114-5 4.4986-.7-1.3846-5-2-5-2v3.5h-1v4h1v3c-.027344 0 4.3-.6154 5-2 .7 1.3846 4.5 4 10.1 4 5.6 0 11.9-3.0272 11.9-7.6154-.0061-3.2607-2.743764-6.0433-7-7.3859v-1.6141c0-.7671-.6244-1.3846-1.4-1.3846z" fill="#ffca1d"/><circle cx="18" cy="1038.3622" opacity=".2" r="2"/><circle cx="18" cy="1037.3622" fill="#fff" r="2"/><circle cx="23.000002" cy="1038.3622" opacity=".2" r="2"/><circle cx="23.000002" cy="1037.3622" fill="#fff" r="2"/><circle cx="12.999993" cy="1038.3622" opacity=".2" r="2"/><circle cx="12.999993" cy="1037.3622" fill="#fff" r="2"/><path d="m14.599609 7c-.7756 0-1.599609.6176656-1.599609 1.3847656v1c0-.7671.824009-1.3847656 1.599609-1.3847656h7c .7756 0 1.400391.6176656 1.400391 1.3847656v-1c0-.7671-.624791-1.3847656-1.400391-1.3847656zm8.400391 2.9980469v1.0000001c3.989368 1.258418 6.644486 3.782783 6.966797 6.779297.010529-.131031.033203-.258859.033203-.392578-.0061-3.2607-2.743764-6.044119-7-7.3867191zm-10 .00391c-2.597684.8208961-4.3 3.1134431-5 4.4980431-.7-1.3846-5-2-5-2v1c0 0 4.3.6154 5 2 .7-1.3846 2.402316-3.677147 5-4.498047z" fill="#fff" opacity=".2" transform="translate(0 1020.3622)"/><path d="m29.966797 16.779297c-.352394 4.36384-6.431201 7.220703-11.867188 7.220703-5.6 0-9.399609-2.6154-10.099609-4-.7 1.3846-5.027344 2-5 2v1c-.027344 0 4.3-.6154 5-2 .7 1.3846 4.499609 4 10.099609 4 5.6 0 11.900391-3.027034 11.900391-7.615234-.000381-.203794-.01178-.405645-.0332-.605469z" opacity=".3" transform="translate(0 1020.3622)"/><path d="m8 1034.8622c-.7-1.3846-5-2-5-2v3.5h-1v4h1v3c-.027344 0 4.3-.6154 5-2z" fill="url(#a)" opacity=".1"/></g></svg>

<?xml version="1.0" encoding="UTF-8" standalone="no"?>
<!-- Created with Inkscape (http://www.inkscape.org/) -->

<svg
   xmlns:dc="http://purl.org/dc/elements/1.1/"
   xmlns:cc="http://creativecommons.org/ns#"
   xmlns:rdf="http://www.w3.org/1999/02/22-rdf-syntax-ns#"
   xmlns:svg="http://www.w3.org/2000/svg"
   xmlns="http://www.w3.org/2000/svg"
   xmlns:xlink="http://www.w3.org/1999/xlink"
   xmlns:sodipodi="http://sodipodi.sourceforge.net/DTD/sodipodi-0.dtd"
   xmlns:inkscape="http://www.inkscape.org/namespaces/inkscape"
   width="32"
   height="32"
   viewBox="0 0 32 32.000001"
   id="svg5470"
   version="1.1"
   inkscape:version="0.91 r13725"
   sodipodi:docname="subsonic.svg">
  <defs
     id="defs5472">
    <linearGradient
       inkscape:collect="always"
       id="linearGradient4201">
      <stop
         id="stop4205"
         offset="0"
         style="stop-color:#000000;stop-opacity:0;" />
      <stop
         id="stop4203"
         offset="1"
         style="stop-color:#000000;stop-opacity:1;" />
    </linearGradient>
    <linearGradient
       inkscape:collect="always"
       xlink:href="#linearGradient4201"
       id="linearGradient4207"
       x1="2"
       y1="1038.1122"
       x2="8"
       y2="1038.1122"
       gradientUnits="userSpaceOnUse" />
  </defs>
  <sodipodi:namedview
     id="base"
     pagecolor="#ffffff"
     bordercolor="#666666"
     borderopacity="1.0"
     inkscape:pageopacity="0.0"
     inkscape:pageshadow="2"
     inkscape:zoom="1"
     inkscape:cx="13.437124"
     inkscape:cy="24.251716"
     inkscape:document-units="px"
     inkscape:current-layer="layer1"
     showgrid="false"
     units="px"
     inkscape:window-width="1600"
     inkscape:window-height="847"
     inkscape:window-x="0"
     inkscape:window-y="0"
     inkscape:window-maximized="1">
    <inkscape:grid
       type="xygrid"
       id="grid6095" />
  </sodipodi:namedview>
  <metadata
     id="metadata5475">
    <rdf:RDF>
      <cc:Work
         rdf:about="">
        <dc:format>image/svg+xml</dc:format>
        <dc:type
           rdf:resource="http://purl.org/dc/dcmitype/StillImage" />
        <dc:title></dc:title>
      </cc:Work>
    </rdf:RDF>
  </metadata>
  <g
     inkscape:label="Layer 1"
     inkscape:groupmode="layer"
     id="layer1"
     transform="translate(0,-1020.3622)">
    <g
       id="g6228"
       transform="matrix(0.66666667,0,0,0.8,-1.3333334,215.87245)">
      <rect
         ry="1.7465838"
         rx="1.4059999"
         y="1014.3622"
         x="14"
         height="10"
         width="3"
         id="rect6068"
         style="opacity:1;fill:#41b941;fill-opacity:1;stroke:none;stroke-width:1;stroke-linecap:round;stroke-linejoin:round;stroke-miterlimit:4;stroke-dasharray:none;stroke-opacity:1" />
      <path
         id="rect6223"
         transform="translate(0,1004.3622)"
         d="M 15.40625,10 C 14.627326,10 14,10.778486 14,11.746094 l 0,1 C 14,11.778486 14.627326,11 15.40625,11 l 0.1875,0 C 16.372674,11 17,11.778486 17,12.746094 l 0,-1 C 17,10.778486 16.372674,10 15.59375,10 l -0.1875,0 z"
         style="opacity:0.2;fill:#ffffff;fill-opacity:1;stroke:none;stroke-width:1;stroke-linecap:round;stroke-linejoin:round;stroke-miterlimit:4;stroke-dasharray:none;stroke-opacity:1"
         inkscape:connector-curvature="0" />
    </g>
    <path
       style="opacity:1;fill:#ffca1d;fill-opacity:1;stroke:none;stroke-width:1;stroke-linecap:round;stroke-linejoin:round;stroke-miterlimit:4;stroke-dasharray:none;stroke-opacity:1"
       d="m 14.6,1027.3622 c -0.7756,0 -1.6,0.6175 -1.6,1.3846 l 0,1.6168 c -2.597684,0.8209 -4.3,3.114 -5,4.4986 -0.7,-1.3846 -5,-2 -5,-2 l 0,3.5 -1,0 0,4 1,0 0,3 c -0.027344,0 4.3,-0.6154 5,-2 0.7,1.3846 4.5,4 10.1,4 5.6,0 11.9,-3.0272 11.9,-7.6154 -0.0061,-3.2607 -2.743764,-6.0433 -7,-7.3859 l 0,-1.6141 c 0,-0.7671 -0.6244,-1.3846 -1.4,-1.3846 z"
       id="path5454"
       inkscape:connector-curvature="0"
       sodipodi:nodetypes="ssccccccccccccsss" />
    <circle
       r="2"
       cy="1038.3622"
       cx="18"
       id="circle4183"
       style="opacity:0.2;fill:#000000;fill-opacity:1;stroke:none;stroke-width:1;stroke-linecap:round;stroke-linejoin:round;stroke-miterlimit:4;stroke-dasharray:none;stroke-opacity:1" />
    <circle
       style="opacity:1;fill:#ffffff;fill-opacity:1;stroke:none;stroke-width:1;stroke-linecap:round;stroke-linejoin:round;stroke-miterlimit:4;stroke-dasharray:none;stroke-opacity:1"
       id="path6070"
       cx="18"
       cy="1037.3622"
       r="2" />
    <circle
       style="opacity:0.2;fill:#000000;fill-opacity:1;stroke:none;stroke-width:1;stroke-linecap:round;stroke-linejoin:round;stroke-miterlimit:4;stroke-dasharray:none;stroke-opacity:1"
       id="circle4185"
       cx="23.000002"
       cy="1038.3622"
       r="2" />
    <circle
       r="2"
       cy="1037.3622"
       cx="23.000002"
       id="circle4179"
       style="opacity:1;fill:#ffffff;fill-opacity:1;stroke:none;stroke-width:1;stroke-linecap:round;stroke-linejoin:round;stroke-miterlimit:4;stroke-dasharray:none;stroke-opacity:1" />
    <circle
       style="opacity:0.2;fill:#000000;fill-opacity:1;stroke:none;stroke-width:1;stroke-linecap:round;stroke-linejoin:round;stroke-miterlimit:4;stroke-dasharray:none;stroke-opacity:1"
       id="circle4187"
       cx="12.999993"
       cy="1038.3622"
       r="2" />
    <circle
       r="2"
       cy="1037.3622"
       cx="12.999993"
       id="circle4181"
       style="opacity:1;fill:#ffffff;fill-opacity:1;stroke:none;stroke-width:1;stroke-linecap:round;stroke-linejoin:round;stroke-miterlimit:4;stroke-dasharray:none;stroke-opacity:1" />
    <path
       style="opacity:0.2;fill:#ffffff;fill-opacity:1;stroke:none;stroke-width:1;stroke-linecap:round;stroke-linejoin:round;stroke-miterlimit:4;stroke-dasharray:none;stroke-opacity:1"
       d="M 14.599609,7 C 13.824009,7 13,7.6176656 13,8.3847656 l 0,1 C 13,8.6176656 13.824009,8 14.599609,8 l 7,0 C 22.375209,8 23,8.6176656 23,9.3847656 l 0,-1 C 23,7.6176656 22.375209,7 21.599609,7 Z M 23,9.9980469 23,10.998047 c 3.989368,1.258418 6.644486,3.782783 6.966797,6.779297 C 29.977326,17.646313 30,17.518485 30,17.384766 29.9939,14.124066 27.256236,11.340647 23,9.9980469 Z m -10,0.00391 C 10.402316,10.822853 8.7,13.1154 8,14.5 7.3,13.1154 3,12.5 3,12.5 l 0,1 c 0,0 4.3,0.6154 5,2 0.7,-1.3846 2.402316,-3.677147 5,-4.498047 z"
       transform="translate(0,1020.3622)"
       id="path4189"
       inkscape:connector-curvature="0"
       sodipodi:nodetypes="sscsscssscccccccccccc" />
    <path
       style="opacity:0.3;fill:#000000;fill-opacity:1;stroke:none;stroke-width:1;stroke-linecap:round;stroke-linejoin:round;stroke-miterlimit:4;stroke-dasharray:none;stroke-opacity:1"
       d="M 29.966797,16.779297 C 29.614403,21.143137 23.535596,24 18.099609,24 12.499609,24 8.7,21.3846 8,20 7.3,21.3846 2.972656,22 3,22 l 0,1 c -0.027344,0 4.3,-0.6154 5,-2 0.7,1.3846 4.499609,4 10.099609,4 C 23.699609,25 30,21.972966 30,17.384766 c -3.81e-4,-0.203794 -0.01178,-0.405645 -0.0332,-0.605469 z"
       transform="translate(0,1020.3622)"
       id="path4194"
       inkscape:connector-curvature="0"
       sodipodi:nodetypes="csccccscc" />
    <path
       sodipodi:nodetypes="ccccccccc"
       inkscape:connector-curvature="0"
       id="path4199"
       d="m 8,1034.8622 c -0.7,-1.3846 -5,-2 -5,-2 l 0,3.5 -1,0 0,4 1,0 0,3 c -0.027344,0 4.3,-0.6154 5,-2 z"
       style="opacity:0.1;fill:url(#linearGradient4207);fill-opacity:1;stroke:none;stroke-width:1;stroke-linecap:round;stroke-linejoin:round;stroke-miterlimit:4;stroke-dasharray:none;stroke-opacity:1" />
  </g>
</svg>
